X:1
T:Evansville -- Reel
R:reel
B:Ryan's Mammoth Collection
N: 255
Z: Contributed by Ray Davies,  ray:davies99.freeserve.co.uk
M:2/4
L:1/16
K:A
uE2|\
E2(CE) Acec | fcec BcAF | E2(FG) (Ac)((3efg) | afec BcAF |
E2(CE) Acec | dcBd cAFA | E2(FG) (Ac)((3efg) | afec A2 :|
|:u((3efg)|\
agab aece | ecac eaca | agab aece | gbeg befg |
agae faec | dBcA BAFA | E2(FG) (Ac)((3efg) | afec A2 :|
